icon-themes/sifr_svg/cmd/sc_marks.svg

<svg viewBox="0 0 16 16" xmlns="http://www.w3.org/2000/svg"><path d="m4 2v2h-2v2h2v4h-2v2h2v2h2v-2h4v2h2v-2h2v-2h-2v-4h2v-2h-2v-2h-2v2h-4v-2zm2 4h4v4h-4z" fill="#555753"/></svg>

<svg xmlns="http://www.w3.org/2000/svg" viewBox="0 0 16 16">
  <path
     style="fill:#555753"
     d="M 4 2 L 4 4 L 2 4 L 2 6 L 4 6 L 4 10 L 2 10 L 2 12 L 4 12 L 4 14 L 6 14 L 6 12 L 10 12 L 10 14 L 12 14 L 12 12 L 14 12 L 14 10 L 12 10 L 12 6 L 14 6 L 14 4 L 12 4 L 12 2 L 10 2 L 10 4 L 6 4 L 6 2 L 4 2 z M 6 6 L 10 6 L 10 10 L 6 10 L 6 6 z "
     />
</svg>
